X: 20890
T: Jose Le Bouezou
R: waltz
M: 3/4
K: Eminor
|:E|:"E" F3 BAB|GFE "D" F3|BAB "C" GFE|"D" F3 "G" B"D" A"C" G|"B" F3- F2:|
|:B,|"Em" E2E FGA|BF.B c/B/ AG|"D"F3 GA2-|AGF "C" GEF|"Am" G2"D" F- F"Em" E2:|

